X: 26515
T: Michael Russell's
R: slide
M: 12/8
K: Dmajor
|:dcB|A2 A A2 A ABA F2 E|DFA B2 A B2 A F2 A|
dcd a2 g f2 d B2 A|BdA BAB d3:|
|:d2 A|dcd a2 g f2 d B2 A|BdA BdA B2 A F2 A|
dcd a2 g f2 d B2 A|BdA BAB d3:|

